X: 30530
T: On Home Turf
R: reel
M: 4/4
K: Edorian
E3E FAdB|A2FD EDBD|~E2FA Bdde|~f3a bafe|
fbba fedA|~B2cB AFDE|FAdc BAFD|1 E2FA BFED:|2 E2FA Bdgf||
e2 gf e~B3|AGFD EFGB|ebge Bega|baaf d3f|
~g2 ed Bged|BAAF D2 FD|E2 GA BdcA|1 B~B2 Bcdf:|2 B~B2 AGFD||

